<?xml version="1.0" encoding="UTF-8"?>
<map version="1.10" tiledversion="1.11.0" orientation="orthogonal" renderorder="right-down" width="40" height="30" tilewidth="64" tileheight="64" infinite="0" nextlayerid="5" nextobjectid="27">
 <tileset firstgid="1" source="ground.tsx"/>
 <tileset firstgid="2851" source="albero4.tsx"/>
 <tileset firstgid="2852" source="oggetto0.tsx"/>
 <tileset firstgid="2853" source="oggetto2.tsx"/>
 <tileset firstgid="2854" source="oggetto8.tsx"/>
 <tileset firstgid="2855" source="oggetto12.tsx"/>
 <layer id="2" name="FloorLayer" width="40" height="30">
  <data encoding="csv">
357,1331,357,357,357,357,357,357,357,357,357,243,357,357,357,357,298,357,357,357,357,357,829,830,357,357,357,357,357,243,298,298,357,357,357,357,357,357,357,2362,
357,1331,298,357,357,357,357,357,357,357,357,357,357,357,357,357,298,357,357,357,357,357,829,830,357,298,357,357,298,357,357,357,298,357,243,243,357,357,357,2362,
357,1331,298,298,298,298,298,298,357,357,357,298,357,357,357,298,242,357,357,357,357,357,829,830,357,298,357,357,298,243,298,298,298,298,298,357,475,357,357,357,
298,1331,298,298,298,298,357,357,357,298,298,242,243,242,243,243,298,243,243,298,298,357,829,830,357,357,357,357,357,475,357,243,243,357,357,357,357,357,357,2362,
357,1331,357,357,475,357,298,298,298,357,357,357,357,298,298,243,298,298,298,357,357,357,829,830,243,357,357,357,357,298,298,298,298,298,298,357,357,2362,357,2362,
357,1331,243,298,243,357,357,357,357,357,357,357,298,298,357,298,357,475,357,357,357,357,829,830,357,357,357,357,357,357,298,357,357,357,243,357,2362,357,357,357,
357,1331,357,357,243,298,357,298,357,357,298,357,357,1052,357,357,357,357,357,298,357,243,829,830,357,357,298,298,298,243,243,243,357,357,357,357,357,357,357,357,
357,1331,1052,357,298,357,357,357,357,1161,1162,1162,1162,1162,1162,1162,1162,1162,1162,1162,1162,1162,1171,830,357,243,357,357,475,357,298,357,298,357,357,298,357,357,357,357,
357,1787,1162,1162,1162,1162,1162,1162,1162,1275,243,475,243,298,298,357,357,357,357,1048,357,357,829,830,357,357,357,357,357,357,357,357,298,357,357,357,357,357,357,357,
357,357,357,357,1052,298,357,357,357,357,357,357,298,243,298,298,298,357,298,1102,357,357,829,830,357,357,357,357,357,357,297,357,297,357,357,357,297,357,357,357,
357,357,357,357,357,298,298,357,357,243,298,298,298,357,357,357,357,357,357,1104,357,298,829,830,357,357,357,357,357,357,357,357,357,357,357,357,298,357,357,2362,
357,357,357,298,357,357,298,298,357,243,357,357,243,357,357,357,357,243,1052,1052,357,298,1228,1229,357,357,357,357,357,357,1329,1443,357,357,357,357,357,357,357,2362,
357,357,357,298,357,475,298,298,357,357,357,357,243,357,357,357,357,243,357,357,357,357,1285,1286,1167,1167,1167,1167,1163,1163,1163,1163,1163,1163,1162,1162,1162,1162,1162,1162,
357,357,357,357,357,357,357,357,357,357,357,357,243,357,357,298,298,475,298,298,298,357,1919,1920,357,475,357,357,297,357,1443,1441,1329,1329,357,357,357,357,1158,1328,
357,357,357,357,357,357,357,357,357,357,357,357,357,357,298,298,298,298,298,298,298,298,298,357,357,357,297,357,357,357,357,357,357,357,357,357,297,357,357,2362,
357,357,357,243,357,357,357,357,357,357,357,357,298,298,357,357,357,298,357,357,298,357,298,298,357,357,357,357,357,357,357,357,475,357,357,357,357,357,357,357,
357,357,357,357,357,357,357,298,357,357,298,298,298,298,298,357,357,357,357,298,357,357,357,357,357,357,357,298,357,357,357,357,357,298,357,357,357,357,357,357,
357,357,357,357,357,357,357,298,298,357,243,357,357,357,357,357,357,298,298,357,357,357,357,357,357,357,357,298,357,357,357,357,298,298,357,357,357,357,357,357,
357,357,357,357,357,357,357,357,298,298,357,357,357,357,357,298,530,357,357,357,357,298,298,298,298,298,298,298,357,357,357,357,357,357,357,357,357,357,357,2362,
357,357,357,357,473,527,357,357,357,357,357,357,357,357,357,298,357,357,298,298,298,298,298,357,357,357,357,357,357,357,357,357,357,357,357,357,357,357,357,357,
357,357,357,357,357,357,357,357,357,357,357,357,357,357,357,357,357,298,357,357,298,357,357,357,357,298,357,298,298,357,357,357,357,357,357,357,357,357,357,357,
357,357,357,357,357,357,357,473,357,357,357,357,357,357,357,357,357,357,357,298,357,357,357,530,298,298,298,357,357,298,298,298,298,357,357,357,357,357,357,357,
357,357,357,357,1052,1052,298,357,357,357,357,475,357,357,357,357,298,298,298,357,357,357,357,298,298,357,357,473,357,357,357,357,357,357,357,357,357,527,357,357,
357,357,357,357,298,1052,357,473,357,357,357,357,357,357,357,298,357,357,357,357,357,357,302,298,357,357,473,357,357,475,357,357,357,357,298,357,357,357,357,357,
357,357,357,357,298,357,357,357,357,357,473,357,357,357,357,357,357,357,357,357,357,357,357,357,357,357,357,357,357,357,298,298,298,298,357,357,357,357,357,357,
357,357,357,357,298,357,357,357,473,357,357,357,357,357,475,473,298,357,357,357,357,357,357,357,357,357,357,357,357,357,357,357,357,357,357,298,298,357,357,357,
357,357,357,357,357,357,357,357,357,357,357,357,357,357,357,357,298,357,357,357,475,473,357,357,357,357,357,357,357,357,357,357,357,357,357,298,298,357,357,357,
357,357,530,357,357,357,357,357,357,357,357,357,357,357,357,357,357,357,357,357,357,357,357,357,357,357,357,357,357,357,357,357,357,357,298,527,298,357,357,357,
357,357,357,357,298,298,298,298,298,357,357,298,298,298,298,357,357,357,357,357,357,357,357,357,357,357,357,357,357,298,298,298,298,298,298,357,357,357,357,357,
357,357,357,298,357,357,357,357,357,357,357,357,357,357,357,357,357,357,357,357,357,357,357,357,357,357,357,357,357,357,357,357,357,357,357,357,357,357,357,2362
</data>
 </layer>
 <objectgroup id="4" name="ObjectsLayer">
  <object id="8" gid="2851" x="640" y="836" width="128" height="128"/>
  <object id="9" gid="2851" x="1672" y="772" width="128" height="128"/>
  <object id="10" gid="2851" x="1928" y="132" width="128" height="128"/>
  <object id="11" gid="2851" x="464" y="1792" width="128" height="128"/>
  <object id="12" gid="2851" x="648" y="1684" width="128" height="128"/>
  <object id="13" gid="2851" x="388" y="1480" width="128" height="128"/>
  <object id="14" gid="2852" x="1080" y="1104" width="128" height="128"/>
  <object id="15" gid="2852" x="2312" y="1800" width="128" height="128"/>
  <object id="16" gid="2853" x="780" y="1412" width="128" height="128"/>
  <object id="17" gid="2853" x="1664" y="1800" width="128" height="128"/>
  <object id="18" gid="2853" x="1596" y="1212" width="128" height="128"/>
  <object id="19" gid="2853" x="2192" y="588" width="128" height="128"/>
  <object id="20" gid="2853" x="652" y="448" width="128" height="128"/>
  <object id="21" gid="2854" x="2432" y="128" width="128" height="128"/>
  <object id="22" gid="2854" x="2004" y="1472" width="128" height="128"/>
  <object id="23" gid="2855" x="1932" y="1348" width="64" height="128"/>
  <object id="24" gid="2855" x="2120" y="1352" width="64" height="128"/>
  <object id="25" gid="2855" x="2112" y="1536" width="64" height="128"/>
  <object id="26" gid="2855" x="1924" y="1536" width="64" height="128"/>
 </objectgroup>
 <layer id="3" name="BlockLayer" width="40" height="30">
  <data encoding="csv">
0,0,0,0,0,0,0,0,0,0,0,0,0,0,0,0,0,0,0,0,0,0,0,0,0,0,0,0,0,0,0,0,0,0,0,0,0,0,0,0,
0,0,0,0,0,0,0,0,0,0,0,0,0,0,0,0,0,0,0,0,0,0,0,0,0,0,0,0,0,0,0,0,0,0,0,0,0,0,0,0,
0,0,0,0,0,0,0,0,0,0,0,0,0,0,0,0,0,0,0,0,0,0,0,0,0,0,0,0,0,0,0,0,0,0,0,0,0,0,0,0,
0,0,0,0,0,0,0,0,0,0,0,0,0,0,0,0,0,0,0,0,0,0,0,0,0,0,0,0,0,0,0,0,0,0,0,0,0,0,0,0,
0,0,0,0,0,0,0,0,0,0,0,0,0,0,0,0,0,0,0,0,0,0,0,0,0,0,0,0,0,0,0,0,0,0,0,0,0,0,0,0,
0,0,0,0,0,0,0,0,0,0,0,0,0,0,0,0,0,0,0,0,0,0,0,0,0,0,0,0,0,0,0,0,0,0,0,0,0,0,0,0,
0,0,0,0,0,0,0,0,0,0,0,0,0,0,0,0,0,0,0,0,0,0,0,0,0,0,0,0,0,0,0,0,0,0,0,0,0,0,0,0,
0,0,0,0,0,0,0,0,0,0,0,0,0,0,0,0,0,0,0,0,0,0,0,0,0,0,0,0,0,0,0,0,0,0,0,0,0,0,0,0,
0,0,0,0,0,0,0,0,0,0,0,0,0,0,0,0,0,0,0,0,0,0,0,0,0,0,0,0,0,0,0,0,0,0,0,0,0,0,0,0,
0,0,0,0,0,0,0,0,0,0,0,0,0,0,0,0,0,0,0,0,0,0,0,0,0,0,0,0,0,0,0,0,0,0,0,0,0,0,0,0,
0,0,0,0,0,0,0,0,0,0,0,0,0,0,0,0,0,0,0,0,0,0,0,0,0,0,0,0,0,0,0,0,0,0,0,0,0,0,0,0,
0,0,0,0,0,0,0,0,0,0,0,0,0,0,0,0,0,0,0,0,0,0,0,0,0,0,0,0,0,0,0,0,0,0,0,0,0,0,0,0,
0,0,0,0,0,0,0,0,0,0,0,0,0,0,0,0,0,0,0,0,0,0,0,0,0,0,0,0,0,0,0,0,0,0,0,0,0,0,0,0,
0,0,0,0,0,0,0,0,0,0,0,0,0,0,0,0,0,0,0,0,0,0,0,0,0,0,0,0,0,0,0,0,0,0,0,0,0,0,0,0,
0,0,0,0,0,0,0,0,0,0,0,0,0,0,0,0,0,0,0,0,0,0,0,0,0,0,0,0,0,0,0,0,0,0,0,0,0,0,0,0,
0,0,0,0,0,0,0,0,0,0,0,0,0,0,0,0,0,0,0,0,0,0,0,0,0,0,0,0,0,0,0,0,0,0,0,0,0,0,0,0,
0,0,0,0,0,0,0,0,0,0,0,0,0,0,0,0,0,0,0,0,0,0,0,0,0,0,0,0,0,0,0,0,0,0,0,0,0,0,0,0,
0,0,0,0,0,0,0,0,0,0,0,0,0,0,0,0,0,0,0,0,0,0,0,0,0,0,0,0,0,0,0,0,0,0,0,0,0,0,0,0,
0,0,0,0,0,0,0,0,0,0,0,0,0,0,0,0,0,0,0,0,0,0,0,0,0,0,0,0,0,0,0,0,0,0,0,0,0,0,0,0,
0,0,0,0,0,0,0,0,0,0,0,0,0,0,0,0,0,0,0,0,0,0,0,0,0,0,0,0,0,0,0,0,0,0,0,0,0,0,0,0,
0,0,0,0,0,0,0,0,0,0,0,0,0,0,0,0,0,0,0,0,0,0,0,0,0,0,0,0,0,0,0,0,0,0,0,0,0,0,0,0,
0,0,0,0,0,0,0,0,0,0,0,0,0,0,0,0,0,0,0,0,0,0,0,0,0,0,0,0,0,0,0,0,0,0,0,0,0,0,0,0,
0,0,0,0,0,0,0,0,0,0,0,0,0,0,0,0,0,0,0,0,0,0,0,0,0,0,0,0,0,0,0,0,0,0,0,0,0,0,0,0,
0,0,0,0,0,0,0,0,0,0,0,0,0,0,0,0,0,0,0,0,0,0,0,0,0,0,0,0,0,0,0,0,0,0,0,0,0,0,0,0,
0,0,0,0,0,0,0,0,0,0,0,0,0,0,0,0,0,0,0,0,0,0,0,0,0,0,0,0,0,0,0,0,0,0,0,0,0,0,0,0,
0,0,0,0,0,0,0,0,0,0,0,0,0,0,0,0,0,0,0,0,0,0,0,0,0,0,0,0,0,0,0,0,0,0,0,0,0,0,0,0,
0,0,0,0,0,0,0,0,0,0,0,0,0,0,0,0,0,0,0,0,0,0,0,0,0,0,0,0,0,0,0,0,0,0,0,0,0,0,0,0,
0,0,0,0,0,0,0,0,0,0,0,0,0,0,0,0,0,0,0,0,0,0,0,0,0,0,0,0,0,0,0,0,0,0,0,0,0,0,0,0,
0,0,0,0,0,0,0,0,0,0,0,0,0,0,0,0,0,0,0,0,0,0,0,0,0,0,0,0,0,0,0,0,0,0,0,0,0,0,0,0,
0,0,0,0,0,0,0,0,0,0,0,0,0,0,0,0,0,0,0,0,0,0,0,0,0,0,0,0,0,0,0,0,0,0,0,0,0,0,0,0
</data>
 </layer>
</map>
